X: 38116
T: Sport Of The Chase, The
R: slip jig
M: 9/8
K: Gmajor
|:G2 G B2 G BdB|G2 G B2 G BdB|C2 C E2 C EGE|D2 D F2 D FAF:|
G2 G g2 d BdB|G2 G g2 d BdB|c2 c e2 c ege|d2 d f2 d faf|
gdB gdB gdB|gdB gdB gdB|ece ece ece|fdf fdf gdB||

